public/icons/bank.svg

<svg id="Layer_1" data-name="Layer 1" xmlns="http://www.w3.org/2000/svg" xmlns:xlink="http://www.w3.org/1999/xlink" viewBox="0 0 45.10445 47.8"><defs><clipPath id="clip-path" transform="translate(0 48.4)"><rect x="38.3" y="-40.9" width="6.8" height="36" style="fill:none"/></clipPath><clipPath id="clip-path-2" transform="translate(0 48.4)"><rect y="-48.4" width="13.8" height="1.8" style="fill:none"/></clipPath><clipPath id="clip-path-3" transform="translate(0 48.4)"><rect x="9.3" y="-2.5" width="27.4" height="1.8" style="fill:none"/></clipPath></defs><title>bank</title><path d="M23-4.9V-40.7H4.3A3.37194,3.37194,0,0,0,.9-37.3V-4.9H23" transform="translate(0 48.4)" style="fill:#d9f3fd"/><path d="M11.9-27.9a2.58189,2.58189,0,0,1-2.6-2.6H11a.89626.89626,0,0,0,.9.9.89626.89626,0,0,0,.9-.9.89626.89626,0,0,0-.9-.9A2.58189,2.58189,0,0,1,9.3-34a2.58189,2.58189,0,0,1,2.6-2.6A2.52221,2.52221,0,0,1,14.5-34H12.8a.89626.89626,0,0,0-.9-.9.89626.89626,0,0,0-.9.9.89626.89626,0,0,0,.9.9,2.58189,2.58189,0,0,1,2.6,2.6,2.64744,2.64744,0,0,1-2.6,2.6" transform="translate(0 48.4)" style="fill:#f89d0f"/><path d="M12.8-35.6H11.1v-2.6h1.7v2.6" transform="translate(0 48.4)" style="fill:#f89d0f"/><path d="M12.8-26.2H11.1v-2.6h1.7v2.6" transform="translate(0 48.4)" style="fill:#f89d0f"/><path d="M7.7-31.3H6V-33H7.7v1.7" transform="translate(0 48.4)" style="fill:#f89d0f"/><path d="M17.9-31.3H16.2V-33h1.7v1.7" transform="translate(0 48.4)" style="fill:#f89d0f"/><path d="M17.9-22.8H6v-1.7H17.9v1.7" transform="translate(0 48.4)" style="fill:#a7e3f9"/><path d="M14.5-19.4H9.4v-1.7h5.1v1.7" transform="translate(0 48.4)" style="fill:#a7e3f9"/><path d="M18.3-14.3H6V-16H18.4v1.7" transform="translate(0 48.4)" style="fill:#a7e3f9"/><path d="M16.2-10.9H6v-1.7H16.2v1.7" transform="translate(0 48.4)" style="fill:#a7e3f9"/><path d="M14.5-7.5H6V-9.2h8.5v1.7" transform="translate(0 48.4)" style="fill:#a7e3f9"/><path d="M23-4.9H38.3V-40.7H23Z" transform="translate(0 48.4)" style="fill:#a7e3f9"/><g style="clip-path:url(#clip-path)"><path d="M41.7-40.7H38.3V-4.9h6.8V-37.3a3.31142,3.31142,0,0,0-3.4-3.4" transform="translate(0 48.4)" style="fill:#2d5cb3"/></g><path d="M39.2-28.8H37.5V-33h1.7v4.2" transform="translate(0 48.4)" style="fill:#100f0d"/><path d="M39.2-34.7H37.5v-1.7h1.7v1.7" transform="translate(0 48.4)" style="fill:#100f0d"/><path d="M26.4-17.6V-47.5H41.7v32.4H29.6l-3.2-2.5" transform="translate(0 48.4)" style="fill:#5ac69e"/><path d="M38.3-42.4a1.75238,1.75238,0,0,1-1.7-1.7H31.5a1.75238,1.75238,0,0,1-1.7,1.7v22.2a1.75238,1.75238,0,0,1,1.7,1.7h5.1a1.75238,1.75238,0,0,1,1.7-1.7V-42.4" transform="translate(0 48.4)" style="fill:#80d2a4"/><path d="M34.1-27.1a4.26818,4.26818,0,0,1-4.3-4.3,4.26818,4.26818,0,0,1,4.3-4.3,4.26818,4.26818,0,0,1,4.3,4.3,4.39873,4.39873,0,0,1-4.3,4.3" transform="translate(0 48.4)" style="fill:#38ad8a"/><path d="M34.9-34.7H33.2v-3.4h1.7v3.4" transform="translate(0 48.4)" style="fill:#38ad8a"/><path d="M33.2-24.5h1.7v-4.3H33.2Z" transform="translate(0 48.4)" style="fill:#38ad8a"/><path d="M23-43.3H11.9V-45H23v1.7" transform="translate(0 48.4)" style="fill:#206731"/><path d="M10.2-43.3H8.5V-45h1.7v1.7" transform="translate(0 48.4)" style="fill:#206731"/><g style="clip-path:url(#clip-path-2)"><path d="M13.6-46.7H0v-1.7H13.6v1.7" transform="translate(0 48.4)" style="fill:#206731"/></g><path d="M38.3-15.1H26.4v-2.5l3.2,2.5h8.7" transform="translate(0 48.4)" style="fill:#45a99f"/><path d="M34.9-27.2v-1.6H33.2v1.6a4.29893,4.29893,0,0,1-3.4-4.2,4.393,4.393,0,0,1,2.4-3.9l3.6,7.7a.97479.97479,0,0,1-.9.4" transform="translate(0 48.4)" style="fill:#287e59"/><path d="M34.9-24.5H33.2v-4.3h1.7v4.3" transform="translate(0 48.4)" style="fill:#287e59"/><path d="M34.1-11.7,23-20.2,11.9-11.7Z" transform="translate(0 48.4)" style="fill:#253e7b"/><path d="M34.1-4.9H11.9v3.4H34V-4.9" transform="translate(0 48.4)" style="fill:#253e7b"/><path d="M17.9-4.9v-6.8H14.5v6.8h3.4" transform="translate(0 48.4)" style="fill:#2b57ae"/><path d="M24.7-4.9v-6.8H21.3v6.8h3.4" transform="translate(0 48.4)" style="fill:#2b57ae"/><path d="M31.5-4.9v-6.8H28.1v6.8h3.4" transform="translate(0 48.4)" style="fill:#2b57ae"/><path d="M23.9-13.1H22.2v-1.7h1.7v1.7" transform="translate(0 48.4)" style="fill:#2b57ae"/><g style="clip-path:url(#clip-path-3)"><path d="M36.6-.6H9.4V-2.3H36.7V-.6" transform="translate(0 48.4)" style="fill:#2b57ae"/></g></svg>

<?xml version="1.0" encoding="utf-8"?>
<!-- Generator: Adobe Illustrator 24.0.1, SVG Export Plug-In . SVG Version: 6.00 Build 0)  -->
<svg version="1.1" id="Layer_1" xmlns="http://www.w3.org/2000/svg" xmlns:xlink="http://www.w3.org/1999/xlink" x="0px" y="0px"
	 viewBox="0 0 500 500" style="enable-background:new 0 0 500 500;" xml:space="preserve">
<style type="text/css">
	.st0{fill:#D9F3FD;}
	.st1{fill:#F89D0F;}
	.st2{fill:#34B540;}
	.st3{fill:#A7E3F9;}
	.st4{clip-path:url(#SVGID_2_);}
	.st5{fill:#2D5CB3;}
	.st6{fill:#100F0D;}
	.st7{fill:#5AC69E;}
	.st8{fill:#80D2A4;}
	.st9{fill:#38AD8A;}
	.st10{fill:#206731;}
	.st11{clip-path:url(#SVGID_4_);}
	.st12{fill:#45A99F;}
	.st13{fill:#287E59;}
	.st14{fill:#253E7B;}
	.st15{fill:#2B57AE;}
	.st16{clip-path:url(#SVGID_6_);}
</style>
<path fill="#D9F3FD" d="M23-4.9v-35.8H4.3c-1.9,0-3.4,1.5-3.4,3.4v32.4H23"/>
<path fill="#F89D0F" d="M11.9-27.9c-1.4,0-2.6-1.1-2.6-2.6h1.7c0,0.5,0.4,0.9,0.9,0.9s0.9-0.4,0.9-0.9c0-0.5-0.4-0.9-0.9-0.9
	c-1.4,0-2.6-1.1-2.6-2.6c0-1.4,1.1-2.6,2.6-2.6s2.6,1.1,2.6,2.6h-1.7c0-0.5-0.4-0.9-0.9-0.9s-0.9,0.4-0.9,0.9c0,0.5,0.4,0.9,0.9,0.9
	c1.4,0,2.6,1.1,2.6,2.6C14.5-29.1,13.3-27.9,11.9-27.9"/>
<path fill="#F89D0F" d="M12.8-35.6h-1.7v-2.6h1.7V-35.6"/>
<path fill="#F89D0F" d="M12.8-26.2h-1.7v-2.6h1.7V-26.2"/>
<path fill="#F89D0F" d="M7.7-31.3H6V-33h1.7V-31.3"/>
<path fill="#F89D0F" d="M17.9-31.3h-1.7V-33h1.7V-31.3"/>
<path fill="#A7E3F9" d="M17.9-22.8H6v-1.7h11.9V-22.8"/>
<path fill="#A7E3F9" d="M14.5-19.4H9.4v-1.7h5.1V-19.4"/>
<path fill="#A7E3F9" d="M18.3-14.3H6V-16h12.4V-14.3"/>
<path fill="#A7E3F9" d="M16.2-10.9H6v-1.7h10.2V-10.9"/>
<path fill="#A7E3F9" d="M14.5-7.5H6v-1.7h8.5V-7.5"/>
<path fill="#A7E3F9" d="M23-4.9h15.3v-35.8H23V-4.9z"/>
<g>
	<defs>
		<rect id="SVGID_1_" x="38.3" y="-40.9" width="6.8" height="36"/>
	</defs>
	<clipPath id="SVGID_2_">
		<use xlink:href="#SVGID_1_"  style="overflow:visible;"/>
	</clipPath>
	<g class="st4">
		<path class="st5" d="M41.7-40.7h-3.4v35.8h6.8v-32.4C45.2-39.2,43.6-40.7,41.7-40.7"/>
	</g>
</g>
<path class="st6" d="M39.2-28.8h-1.7V-33h1.7V-28.8"/>
<path class="st6" d="M39.2-34.7h-1.7v-1.7h1.7V-34.7"/>
<path class="st7" d="M26.4-17.6v-29.9h15.3v32.4H29.6L26.4-17.6"/>
<path class="st8" d="M38.3-42.4c-0.9,0-1.7-0.8-1.7-1.7h-5.1c0,0.9-0.8,1.7-1.7,1.7v22.2c0.9,0,1.7,0.8,1.7,1.7h5.1
	c0-0.9,0.8-1.7,1.7-1.7V-42.4"/>
<path class="st9" d="M34.1-27.1c-2.4,0-4.3-1.9-4.3-4.3c0-2.4,1.9-4.3,4.3-4.3c2.4,0,4.3,1.9,4.3,4.3C38.3-29,36.4-27.1,34.1-27.1"
	/>
<path class="st9" d="M34.9-34.7h-1.7v-3.4h1.7V-34.7"/>
<path class="st9" d="M33.2-24.5h1.7v-4.3h-1.7V-24.5z"/>
<path class="st10" d="M23-43.3H11.9V-45H23V-43.3"/>
<path class="st10" d="M10.2-43.3H8.5V-45h1.7V-43.3"/>
<g>
	<defs>
		<rect id="SVGID_3_" y="-48.4" width="13.8" height="1.8"/>
	</defs>
	<clipPath id="SVGID_4_">
		<use xlink:href="#SVGID_3_"  style="overflow:visible;"/>
	</clipPath>
	<g class="st11">
		<path class="st10" d="M13.6-46.7H0v-1.7h13.6V-46.7"/>
	</g>
</g>
<path class="st12" d="M38.3-15.1H26.4v-2.5l3.2,2.5H38.3"/>
<path class="st13" d="M34.9-27.2v-1.6h-1.7v1.6c-1.9-0.4-3.4-2.1-3.4-4.2c0-1.7,1-3.2,2.4-3.9l3.6,7.7
	C35.6-27.3,35.3-27.2,34.9-27.2"/>
<path class="st13" d="M34.9-24.5h-1.7v-4.3h1.7V-24.5"/>
<path class="st14" d="M34.1-11.7L23-20.2l-11.1,8.5H34.1z"/>
<path class="st14" d="M34.1-4.9H11.9v3.4h22.1V-4.9"/>
<path class="st15" d="M17.9-4.9v-6.8h-3.4v6.8H17.9"/>
<path class="st15" d="M24.7-4.9v-6.8h-3.4v6.8H24.7"/>
<path class="st15" d="M31.5-4.9v-6.8h-3.4v6.8H31.5"/>
<path class="st15" d="M23.9-13.1h-1.7v-1.7h1.7V-13.1"/>
<g>
	<defs>
		<rect id="SVGID_5_" x="9.3" y="-2.5" width="27.4" height="1.8"/>
	</defs>
	<clipPath id="SVGID_6_">
		<use xlink:href="#SVGID_5_"  style="overflow:visible;"/>
	</clipPath>
	<g class="st16">
		<path class="st15" d="M36.6-0.6H9.4v-1.7h27.3V-0.6"/>
	</g>
</g>
</svg>
